X:26
T:The Banshee
M:4/4
L:1/8
R:reel
K:D
|:G2GD EDEG|AGAB d2Bd|eged BAGA|BAGE EDEF|
G2GD EDEG|AGAB d2Bd|eged BAGA|BAGE EDD2:|
|:eaag efge|dBBA B3d|eBB2 gBfB|eBBA B3d|
eaag efge|dBBA B3d|eged BAGA|BAGE EDD2:|
